X: 34115
T: Reel Des Voyageurs
R: reel
M: 4/4
K: Amajor
A2cA eAcA|eAcA d2cB|A2ce fefg|1 afec d2cB:|2 afec defg||
agae agae|f2ed cefg|1 a2g2 f2ed|f2ed cefg:|2 a2c2 f2ed|[M:3/2] f2ed c2B4G2||

